public/flags/AW-1.svg

<svg fill="none" height="53" viewBox="0 0 61 53" width="61" xmlns="http://www.w3.org/2000/svg" xmlns:xlink="http://www.w3.org/1999/xlink"><mask id="a" height="43" maskUnits="userSpaceOnUse" width="59" x="1" y="3"><rect fill="#fff" height="42.5" rx="4.24286" width="59" x="1" y="3"/></mask><rect fill="#fff" height="42.5" rx="4.24286" width="59" x="1" y="3"/><g mask="url(#a)"><path d="m1 3h59v42.5h-59z" fill="#30c6e0"/><g clip-rule="evenodd" fill="#ffcd4b" fill-rule="evenodd"><path d="m30.4999 32.75c4.6549 0 8.4285-3.8056 8.4285-8.5s-3.7736-8.5-8.4285-8.5c-4.655 0-8.4286 3.8056-8.4286 8.5s3.7736 8.5 8.4286 8.5z"/><path d="m27.0618 39.4426 3.4384-5.1762 3.4385 5.1762.871-6.1681 5.3249 3.159-1.869-5.9384 6.1567.5163-4.2388-4.5325 5.7691-2.2289-5.7691-2.2289 4.2388-4.5325-6.1567.5163 1.869-5.9384-5.3249 3.159-.871-6.16813-3.4385 5.17623-3.4384-5.17623-.871 6.16813-5.325-3.159 1.8691 5.9384-6.1568-.5163 4.2389 4.5325-5.7691 2.2289 5.7691 2.2289-4.2389 4.5325 6.1568-.5163-1.8691 5.9384 5.325-3.159zm13.2717-15.1926c0 5.4768-4.4025 9.9166-9.8333 9.9166s-9.8334-4.4398-9.8334-9.9166c0-5.4769 4.4026-9.9167 9.8334-9.9167s9.8333 4.4398 9.8333 9.9167z"/><path d="m3.80957 6.54046c0-.39055.3166-.70715.70714-.70715h1.39524c.39055 0 .70714.3166.70714.70715v1.41904c0 .39055-.31659.70715-.70714.70715h-1.39524c-.39054 0-.70714-.3166-.70714-.70715zm.00005 5.66664c0-.3905.3166-.7071.70714-.7071h1.39524c.39054 0 .70714.3166.70714.7071v1.419c0 .3906-.3166.7072-.70714.7072h-1.39524c-.39054 0-.70714-.3166-.70714-.7072zm.70714 4.9596c-.39054 0-.70714.3166-.70714.7071v1.4191c0 .3905.3166.7071.70714.7071h1.39524c.39054 0 .70714-.3166.70714-.7071v-1.4191c0-.3905-.3166-.7071-.70714-.7071zm-.70714 6.3737c0-.3905.3166-.7071.70714-.7071h1.39524c.39054 0 .70714.3166.70714.7071v1.4191c0 .3905-.3166.7071-.70714.7071h-1.39524c-.39054 0-.70714-.3166-.70714-.7071zm.70714 4.9596c-.39054 0-.70714.3166-.70714.7071v1.4191c0 .3905.3166.7071.70714.7071h1.39524c.39054 0 .70714-.3166.70714-.7071v-1.4191c0-.3905-.3166-.7071-.70714-.7071zm-.70714 6.3738c0-.3906.3166-.7072.70714-.7072h1.39524c.39054 0 .70714.3166.70714.7072v1.419c0 .3906-.3166.7072-.70714.7072h-1.39524c-.39054 0-.70714-.3166-.70714-.7072zm.70714 4.9595c-.39054 0-.70714.3166-.70714.7072v1.419c0 .3906.3166.7072.70714.7072h1.39524c.39054 0 .70714-.3166.70714-.7072v-1.419c0-.3906-.3166-.7072-.70714-.7072zm2.10235-2.1262c0-.3905.3166-.7071.70714-.7071h1.39524c.39055 0 .70714.3166.70714.7071v1.419c0 .3906-.31659.7072-.70714.7072h-1.39524c-.39054 0-.70714-.3166-.70714-.7071zm.70714-6.3738c-.39054 0-.70714.3166-.70714.7072v1.419c0 .3906.3166.7072.70714.7072h1.39524c.39055 0 .70714-.3166.70714-.7072v-1.419c0-.3906-.31659-.7072-.70714-.7072zm-.70714-4.9595c0-.3906.3166-.7072.70714-.7072h1.39524c.39055 0 .70714.3166.70714.7072v1.419c0 .3906-.31659.7072-.70714.7072h-1.39524c-.39054 0-.70714-.3166-.70714-.7072zm.70714-6.3738c-.39054 0-.70714.3166-.70714.7071v1.4191c0 .3905.3166.7071.70714.7071h1.39524c.39055 0 .70714-.3166.70714-.7071v-1.4191c0-.3905-.31659-.7071-.70714-.7071zm-.70714-4.9595c0-.3906.3166-.7072.70714-.7072h1.39524c.39055 0 .70714.3166.70714.7072v1.419c0 .3906-.31659.7072-.70714.7072h-1.39524c-.39054 0-.70714-.3166-.70714-.7072zm.70714-6.37386c-.39054 0-.70714.3166-.70714.70714v1.41902c0 .3906.3166.7072.70714.7072h1.39524c.39055 0 .70714-.3166.70714-.7072v-1.41902c0-.39054-.31659-.70714-.70714-.70714z"/></g></g></svg>

<svg width="61" height="53" viewBox="0 0 61 53" fill="none" xmlns="http://www.w3.org/2000/svg">
<rect x="1" y="3" width="59" height="42.5" rx="4.24286" fill="white"/>
<mask id="mask0" mask-type="alpha" maskUnits="userSpaceOnUse" x="1" y="3" width="59" height="43">
<rect x="1" y="3" width="59" height="42.5" rx="4.24286" fill="white"/>
</mask>
<g mask="url(#mask0)">
<rect x="1" y="3" width="59" height="42.5" fill="#30C6E0"/>
<path fill-rule="evenodd" clip-rule="evenodd" d="M30.4999 32.75C35.1548 32.75 38.9284 28.9444 38.9284 24.25C38.9284 19.5556 35.1548 15.75 30.4999 15.75C25.8449 15.75 22.0713 19.5556 22.0713 24.25C22.0713 28.9444 25.8449 32.75 30.4999 32.75Z" fill="#FFCD4B"/>
<path fill-rule="evenodd" clip-rule="evenodd" d="M27.0618 39.4426L30.5002 34.2664L33.9387 39.4426L34.8097 33.2745L40.1346 36.4335L38.2656 30.4951L44.4223 31.0114L40.1835 26.4789L45.9526 24.25L40.1835 22.0211L44.4223 17.4886L38.2656 18.0049L40.1346 12.0665L34.8097 15.2255L33.9387 9.05737L30.5002 14.2336L27.0618 9.05737L26.1908 15.2255L20.8658 12.0665L22.7349 18.0049L16.5781 17.4886L20.817 22.0211L15.0479 24.25L20.817 26.4789L16.5781 31.0114L22.7349 30.4951L20.8658 36.4335L26.1908 33.2745L27.0618 39.4426ZM40.3335 24.25C40.3335 29.7268 35.931 34.1666 30.5002 34.1666C25.0694 34.1666 20.6668 29.7268 20.6668 24.25C20.6668 18.7731 25.0694 14.3333 30.5002 14.3333C35.931 14.3333 40.3335 18.7731 40.3335 24.25Z" fill="#FFCD4B"/>
<path fill-rule="evenodd" clip-rule="evenodd" d="M3.80957 6.54046C3.80957 6.14991 4.12617 5.83331 4.51671 5.83331H5.91195C6.3025 5.83331 6.61909 6.14991 6.61909 6.54046V7.9595C6.61909 8.35005 6.3025 8.66665 5.91195 8.66665H4.51671C4.12617 8.66665 3.80957 8.35005 3.80957 7.9595V6.54046ZM3.80962 12.2071C3.80962 11.8166 4.12622 11.5 4.51676 11.5H5.912C6.30254 11.5 6.61914 11.8166 6.61914 12.2071V13.6261C6.61914 14.0167 6.30254 14.3333 5.912 14.3333H4.51676C4.12622 14.3333 3.80962 14.0167 3.80962 13.6261V12.2071ZM4.51676 17.1667C4.12622 17.1667 3.80962 17.4833 3.80962 17.8738V19.2929C3.80962 19.6834 4.12622 20 4.51676 20H5.912C6.30254 20 6.61914 19.6834 6.61914 19.2929V17.8738C6.61914 17.4833 6.30254 17.1667 5.912 17.1667H4.51676ZM3.80962 23.5404C3.80962 23.1499 4.12622 22.8333 4.51676 22.8333H5.912C6.30254 22.8333 6.61914 23.1499 6.61914 23.5404V24.9595C6.61914 25.35 6.30254 25.6666 5.912 25.6666H4.51676C4.12622 25.6666 3.80962 25.35 3.80962 24.9595V23.5404ZM4.51676 28.5C4.12622 28.5 3.80962 28.8166 3.80962 29.2071V30.6262C3.80962 31.0167 4.12622 31.3333 4.51676 31.3333H5.912C6.30254 31.3333 6.61914 31.0167 6.61914 30.6262V29.2071C6.61914 28.8166 6.30254 28.5 5.912 28.5H4.51676ZM3.80962 34.8738C3.80962 34.4832 4.12622 34.1666 4.51676 34.1666H5.912C6.30254 34.1666 6.61914 34.4832 6.61914 34.8738V36.2928C6.61914 36.6834 6.30254 37 5.912 37H4.51676C4.12622 37 3.80962 36.6834 3.80962 36.2928V34.8738ZM4.51676 39.8333C4.12622 39.8333 3.80962 40.1499 3.80962 40.5405V41.9595C3.80962 42.3501 4.12622 42.6667 4.51676 42.6667H5.912C6.30254 42.6667 6.61914 42.3501 6.61914 41.9595V40.5405C6.61914 40.1499 6.30254 39.8333 5.912 39.8333H4.51676ZM6.61911 37.7071C6.61911 37.3166 6.93571 37 7.32625 37H8.72149C9.11204 37 9.42863 37.3166 9.42863 37.7071V39.1261C9.42863 39.5167 9.11204 39.8333 8.72149 39.8333H7.32625C6.93571 39.8333 6.61911 39.5167 6.61911 39.1262V37.7071ZM7.32625 31.3333C6.93571 31.3333 6.61911 31.6499 6.61911 32.0405V33.4595C6.61911 33.8501 6.93571 34.1667 7.32625 34.1667H8.72149C9.11204 34.1667 9.42863 33.8501 9.42863 33.4595V32.0405C9.42863 31.6499 9.11204 31.3333 8.72149 31.3333H7.32625ZM6.61911 26.3738C6.61911 25.9832 6.93571 25.6666 7.32625 25.6666H8.72149C9.11204 25.6666 9.42863 25.9832 9.42863 26.3738V27.7928C9.42863 28.1834 9.11204 28.5 8.72149 28.5H7.32625C6.93571 28.5 6.61911 28.1834 6.61911 27.7928V26.3738ZM7.32625 20C6.93571 20 6.61911 20.3166 6.61911 20.7071V22.1262C6.61911 22.5167 6.93571 22.8333 7.32625 22.8333H8.72149C9.11204 22.8333 9.42863 22.5167 9.42863 22.1262V20.7071C9.42863 20.3166 9.11204 20 8.72149 20H7.32625ZM6.61911 15.0405C6.61911 14.6499 6.93571 14.3333 7.32625 14.3333H8.72149C9.11204 14.3333 9.42863 14.6499 9.42863 15.0405V16.4595C9.42863 16.8501 9.11204 17.1667 8.72149 17.1667H7.32625C6.93571 17.1667 6.61911 16.8501 6.61911 16.4595V15.0405ZM7.32625 8.66664C6.93571 8.66664 6.61911 8.98324 6.61911 9.37378V10.7928C6.61911 11.1834 6.93571 11.5 7.32625 11.5H8.72149C9.11204 11.5 9.42863 11.1834 9.42863 10.7928V9.37378C9.42863 8.98324 9.11204 8.66664 8.72149 8.66664H7.32625Z" fill="#FFCD4B"/>
</g>
</svg>
